assets/images/icons/ico-slide-14.svg

<svg width="34" height="35" viewBox="0 0 34 35" fill="none" xmlns="http://www.w3.org/2000/svg">
<rect x="18.9264" y="0.312508" width="6.87518" height="0.625017" stroke="#DF0112" stroke-width="0.625017"/>
<rect x="6.42603" y="4.06263" width="6.87518" height="0.625017" stroke="#0000FF" stroke-width="0.625017"/>
<mask id="path-3-inside-1" fill="white">
<path fill-rule="evenodd" clip-rule="evenodd" d="M12.3626 3.75012H7.36248V16.093C3.46877 17.184 0.613281 20.7591 0.613281 25.0012C0.613281 30.11 4.75475 34.2514 9.86352 34.2514V33.2514C5.30704 33.2514 1.61328 29.5577 1.61328 25.0012C1.61328 20.4447 5.30704 16.751 9.86352 16.751C11.6171 16.751 13.2415 17.2975 14.5776 18.2295L15.1497 17.4093C14.3115 16.8246 13.3718 16.3752 12.3626 16.0926V3.75012Z"/>
</mask>
<path d="M7.36248 3.75012V2.75012H6.36248V3.75012H7.36248ZM12.3626 3.75012H13.3626V2.75012H12.3626V3.75012ZM7.36248 16.093L7.63227 17.056L8.36248 16.8514V16.093H7.36248ZM9.86352 34.2514V35.2514H10.8635V34.2514H9.86352ZM9.86352 33.2514H10.8635V32.2514H9.86352V33.2514ZM14.5776 18.2295L14.0055 19.0496L14.8257 19.6217L15.3978 18.8016L14.5776 18.2295ZM15.1497 17.4093L15.9699 17.9814L16.542 17.1612L15.7218 16.5891L15.1497 17.4093ZM12.3626 16.0926H11.3626V16.8511L12.093 17.0556L12.3626 16.0926ZM7.36248 4.75012H12.3626V2.75012H7.36248V4.75012ZM8.36248 16.093V3.75012H6.36248V16.093H8.36248ZM1.61328 25.0012C1.61328 21.2191 4.159 18.0291 7.63227 17.056L7.09269 15.1301C2.77855 16.3388 -0.386719 20.2991 -0.386719 25.0012H1.61328ZM9.86352 33.2514C5.30704 33.2514 1.61328 29.5577 1.61328 25.0012H-0.386719C-0.386719 30.6622 4.20247 35.2514 9.86352 35.2514V33.2514ZM8.86352 33.2514V34.2514H10.8635V33.2514H8.86352ZM0.613281 25.0012C0.613281 30.11 4.75475 34.2514 9.86352 34.2514V32.2514C5.85932 32.2514 2.61328 29.0054 2.61328 25.0012H0.613281ZM9.86352 15.751C4.75475 15.751 0.613281 19.8924 0.613281 25.0012H2.61328C2.61328 20.997 5.85932 17.751 9.86352 17.751V15.751ZM15.1497 17.4093C13.6512 16.364 11.8282 15.751 9.86352 15.751V17.751C11.4059 17.751 12.8317 18.2309 14.0055 19.0496L15.1497 17.4093ZM14.3295 16.8372L13.7574 17.6574L15.3978 18.8016L15.9699 17.9814L14.3295 16.8372ZM12.093 17.0556C12.9921 17.3073 13.8298 17.7079 14.5776 18.2295L15.7218 16.5891C14.7932 15.9414 13.7515 15.443 12.6322 15.1297L12.093 17.0556ZM11.3626 3.75012V16.0926H13.3626V3.75012H11.3626Z" fill="#0000FF" mask="url(#path-3-inside-1)"/>
<mask id="path-5-inside-2" fill="white">
<path fill-rule="evenodd" clip-rule="evenodd" d="M24.8632 0H19.863V11.2503L11.6956 28.752H33.0306L24.8632 11.2503V0ZM33.6132 30.0003V30.002H11.1128V33.7509H33.6134V30.0008L33.6132 30.0003Z"/>
</mask>
<path fill-rule="evenodd" clip-rule="evenodd" d="M24.8632 0H19.863V11.2503L11.6956 28.752H33.0306L24.8632 11.2503V0ZM33.6132 30.0003V30.002H11.1128V33.7509H33.6134V30.0008L33.6132 30.0003Z" fill="white"/>
<path d="M19.863 0V-1H18.863V0H19.863ZM24.8632 0H25.8632V-1H24.8632V0ZM19.863 11.2503L20.7692 11.6732L20.863 11.4722V11.2503H19.863ZM11.6956 28.752L10.7894 28.3291L10.1254 29.752H11.6956V28.752ZM33.0306 28.752V29.752H34.6008L33.9368 28.3291L33.0306 28.752ZM24.8632 11.2503H23.8632V11.4722L23.957 11.6732L24.8632 11.2503ZM33.6132 30.0003L34.5191 29.5769L32.6132 30.0003H33.6132ZM33.6132 30.002V31.002H34.6132V30.002H33.6132ZM11.1128 30.002V29.002H10.1128V30.002H11.1128ZM11.1128 33.7509H10.1128V34.7509H11.1128V33.7509ZM33.6134 33.7509V34.7509H34.6134V33.7509H33.6134ZM33.6134 30.0008H34.6134V29.7786L34.5193 29.5774L33.6134 30.0008ZM19.863 1H24.8632V-1H19.863V1ZM20.863 11.2503V0H18.863V11.2503H20.863ZM12.6018 29.1749L20.7692 11.6732L18.9568 10.8274L10.7894 28.3291L12.6018 29.1749ZM11.6956 29.752H33.0306V27.752H11.6956V29.752ZM23.957 11.6732L32.1244 29.1749L33.9368 28.3291L25.7693 10.8274L23.957 11.6732ZM23.8632 0V11.2503H25.8632V0H23.8632ZM32.6132 30.0003V30.002H34.6132V30.0003H32.6132ZM33.6132 29.002H11.1128V31.002H33.6132V29.002ZM12.1128 33.7509V30.002H10.1128V33.7509H12.1128ZM33.6134 32.7509H11.1128V34.7509H33.6134V32.7509ZM32.6134 30.0008V33.7509H34.6134V30.0008H32.6134ZM32.7072 30.4238L32.7075 30.4243L34.5193 29.5774L34.5191 29.5769L32.7072 30.4238Z" fill="#DF0112" mask="url(#path-5-inside-2)"/>
<mask id="path-7-inside-3" fill="white">
<path fill-rule="evenodd" clip-rule="evenodd" d="M24.8632 0H19.863V11.2503L11.6956 28.752H33.0306L24.8632 11.2503V0ZM33.6132 30.0003V30.002H11.1128V33.7509H33.6134V30.0008L33.6132 30.0003Z"/>
</mask>
<path fill-rule="evenodd" clip-rule="evenodd" d="M24.8632 0H19.863V11.2503L11.6956 28.752H33.0306L24.8632 11.2503V0ZM33.6132 30.0003V30.002H11.1128V33.7509H33.6134V30.0008L33.6132 30.0003Z" fill="white"/>
<path d="M19.863 0V-1H18.863V0H19.863ZM24.8632 0H25.8632V-1H24.8632V0ZM19.863 11.2503L20.7692 11.6732L20.863 11.4722V11.2503H19.863ZM11.6956 28.752L10.7894 28.3291L10.1254 29.752H11.6956V28.752ZM33.0306 28.752V29.752H34.6008L33.9368 28.3291L33.0306 28.752ZM24.8632 11.2503H23.8632V11.4722L23.957 11.6732L24.8632 11.2503ZM33.6132 30.0003L34.5191 29.5769L32.6132 30.0003H33.6132ZM33.6132 30.002V31.002H34.6132V30.002H33.6132ZM11.1128 30.002V29.002H10.1128V30.002H11.1128ZM11.1128 33.7509H10.1128V34.7509H11.1128V33.7509ZM33.6134 33.7509V34.7509H34.6134V33.7509H33.6134ZM33.6134 30.0008H34.6134V29.7786L34.5193 29.5774L33.6134 30.0008ZM19.863 1H24.8632V-1H19.863V1ZM20.863 11.2503V0H18.863V11.2503H20.863ZM12.6018 29.1749L20.7692 11.6732L18.9568 10.8274L10.7894 28.3291L12.6018 29.1749ZM11.6956 29.752H33.0306V27.752H11.6956V29.752ZM23.957 11.6732L32.1244 29.1749L33.9368 28.3291L25.7693 10.8274L23.957 11.6732ZM23.8632 0V11.2503H25.8632V0H23.8632ZM32.6132 30.0003V30.002H34.6132V30.0003H32.6132ZM33.6132 29.002H11.1128V31.002H33.6132V29.002ZM12.1128 33.7509V30.002H10.1128V33.7509H12.1128ZM33.6134 32.7509H11.1128V34.7509H33.6134V32.7509ZM32.6134 30.0008V33.7509H34.6134V30.0008H32.6134ZM32.7072 30.4238L32.7075 30.4243L34.5193 29.5774L34.5191 29.5769L32.7072 30.4238Z" fill="#DF0112" mask="url(#path-7-inside-3)"/>
</svg>

<svg width="34" height="35" fill="none" xmlns="http://www.w3.org/2000/svg"><path stroke="#DF0112" stroke-width=".625" d="M18.926.313h6.875v.625h-6.875z"/><path stroke="#00F" stroke-width=".625" d="M6.426 4.063h6.875v.625H6.426z"/><mask id="a" fill="#fff"><path fill-rule="evenodd" clip-rule="evenodd" d="M12.363 3.75h-5v12.343a9.25 9.25 0 002.501 18.158v-1a8.25 8.25 0 114.714-15.021l.572-.82a9.213 9.213 0 00-2.787-1.317V3.75z"/></mask><path d="M7.362 3.75v-1h-1v1h1zm5 0h1v-1h-1v1zm-5 12.343l.27.963.73-.205v-.758h-1zm2.502 18.158v1h1v-1h-1zm0-1h1v-1h-1v1zm4.714-15.021l-.572.82.82.572.572-.82-.82-.572zm.572-.82l.82.571.572-.82-.82-.572-.572.82zm-2.787-1.317h-1v.758l.73.205.27-.963zm-5-11.343h5v-2h-5v2zm1 11.343V3.75h-2v12.343h2zm-6.75 8.908a8.254 8.254 0 016.02-7.945l-.54-1.926c-4.314 1.209-7.48 5.17-7.48 9.871h2zm8.25 8.25a8.25 8.25 0 01-8.25-8.25h-2c0 5.661 4.59 10.25 10.25 10.25v-2zm-1 0v1h2v-1h-2zm-8.25-8.25a9.25 9.25 0 009.25 9.25v-2a7.25 7.25 0 01-7.25-7.25h-2zm9.25-9.25a9.25 9.25 0 00-9.25 9.25h2a7.25 7.25 0 017.25-7.25v-2zm5.287 1.658a9.21 9.21 0 00-5.286-1.658v2a7.21 7.21 0 014.141 1.299l1.145-1.64zm-.82-.572l-.573.82 1.64 1.145.573-.82-1.64-1.145zm-2.237.219a8.18 8.18 0 012.485 1.174l1.144-1.64a10.211 10.211 0 00-3.09-1.46l-.539 1.926zm-.73-13.306v12.343h2V3.75h-2z" fill="#00F" mask="url(#a)"/><mask id="b" fill="#fff"><path fill-rule="evenodd" clip-rule="evenodd" d="M24.863 0h-5v11.25l-8.167 17.502H33.03L24.863 11.25V0zm8.75 30v.002h-22.5v3.749h22.5V30z"/></mask><path fill-rule="evenodd" clip-rule="evenodd" d="M24.863 0h-5v11.25l-8.167 17.502H33.03L24.863 11.25V0zm8.75 30v.002h-22.5v3.749h22.5V30z" fill="#fff"/><path d="M19.863 0v-1h-1v1h1zm5 0h1v-1h-1v1zm-5 11.25l.906.423.094-.2v-.223h-1zm-8.167 17.502l-.907-.423-.664 1.423h1.57v-1zm21.335 0v1h1.57l-.664-1.423-.906.423zM24.863 11.25h-1v.222l.094.201.906-.423zM33.613 30l.906-.423-1.906.423h1zm0 .002v1h1v-1h-1zm-22.5 0v-1h-1v1h1zm0 3.749h-1v1h1v-1zm22.5 0v1h1v-1h-1zm0-3.75h1v-.222l-.094-.202-.906.424zM19.863 1h5v-2h-5v2zm1 10.25V0h-2v11.25h2zm-8.261 17.925l8.167-17.502-1.812-.846-8.168 17.502 1.813.846zm-.906.577H33.03v-2H11.696v2zm12.261-18.079l8.167 17.502 1.813-.846-8.168-17.502-1.812.846zM23.863 0v11.25h2V0h-2zm8.75 30v.002h2V30h-2zm1-.998h-22.5v2h22.5v-2zm-21.5 4.749v-3.749h-2v3.749h2zm21.5-1h-22.5v2h22.5v-2zm-1-2.75v3.75h2V30h-2zm.094.423l1.812-.847-1.812.847z" fill="#DF0112" mask="url(#b)"/><mask id="c" fill="#fff"><path fill-rule="evenodd" clip-rule="evenodd" d="M24.863 0h-5v11.25l-8.167 17.502H33.03L24.863 11.25V0zm8.75 30v.002h-22.5v3.749h22.5V30z"/></mask><path fill-rule="evenodd" clip-rule="evenodd" d="M24.863 0h-5v11.25l-8.167 17.502H33.03L24.863 11.25V0zm8.75 30v.002h-22.5v3.749h22.5V30z" fill="#fff"/><path d="M19.863 0v-1h-1v1h1zm5 0h1v-1h-1v1zm-5 11.25l.906.423.094-.2v-.223h-1zm-8.167 17.502l-.907-.423-.664 1.423h1.57v-1zm21.335 0v1h1.57l-.664-1.423-.906.423zM24.863 11.25h-1v.222l.094.201.906-.423zM33.613 30l.906-.423-1.906.423h1zm0 .002v1h1v-1h-1zm-22.5 0v-1h-1v1h1zm0 3.749h-1v1h1v-1zm22.5 0v1h1v-1h-1zm0-3.75h1v-.222l-.094-.202-.906.424zM19.863 1h5v-2h-5v2zm1 10.25V0h-2v11.25h2zm-8.261 17.925l8.167-17.502-1.812-.846-8.168 17.502 1.813.846zm-.906.577H33.03v-2H11.696v2zm12.261-18.079l8.167 17.502 1.813-.846-8.168-17.502-1.812.846zM23.863 0v11.25h2V0h-2zm8.75 30v.002h2V30h-2zm1-.998h-22.5v2h22.5v-2zm-21.5 4.749v-3.749h-2v3.749h2zm21.5-1h-22.5v2h22.5v-2zm-1-2.75v3.75h2V30h-2zm.094.423l1.812-.847-1.812.847z" fill="#DF0112" mask="url(#c)"/></svg>
